X: 244
M: C|
L: 1/8
K: G
V: 1
(3(GFE) |\
|: d2 |\
gfg>a g/a/b ag | fef>g (f/g/a) gf | edef gfed | B2e2 e3g//f//e/ |\
dBAG d2cB | edef g3(g//a//b/) | cBAG E2GA | B2G2 G2 :|
V: 2 clef=bass middle=d
g2 |\
g2g2 g2g2 | g2g2 g2g2 | d2d2 d2d2 | d2d2 d2d2 | d2d2 g2g2 |
g2g2 g2g2 | g2g2 c2d2 | g2g2 g2 :||: g2 | g2g2 g2g2 | d2d2
d2d2 | e2e2 e2f2 | g2g2 e2f2 | g2g2 g2g2 | c'2a2 b2g2 |
c2c2 c2d2 | g2g2 g2 :|

